src/icons/outline/media/audio-off.svg

<svg width="24" height="24" viewBox="0 0 24 24" fill="none" xmlns="http://www.w3.org/2000/svg">
<g clip-path="url(#clip0_1_3244)">
<path fill-rule="evenodd" clip-rule="evenodd" d="M2.48047 3.21976C2.77061 2.92188 3.25097 2.93166 3.54102 3.21976L8.67285 8.34867L9.52344 9.20316L13.5547 13.2383L14.6055 14.2813L16.5967 16.2696H16.5859L19.8477 19.5293C20.1477 19.8175 20.1377 20.2949 19.8477 20.583C19.6976 20.732 19.5074 20.8008 19.3174 20.8008C19.1274 20.8008 18.9371 20.732 18.7871 20.583L14.6055 16.3985V20.2744C14.6055 20.5427 14.4652 20.781 14.2451 20.9102C14.1351 20.9698 14.0253 21 13.9053 21C13.7753 21 13.6452 20.9602 13.5352 20.8907L8.10254 17.3828H6.06152C3.82066 17.3827 2 15.444 2 13.0489C2.0002 10.6539 3.82078 8.71598 6.06152 8.71585H6.92188L2.48047 4.27347C2.18037 3.98525 2.19036 3.50797 2.48047 3.21976ZM6.06152 10.1573C4.60111 10.1574 3.40058 11.449 3.40039 13.0489C3.40039 14.6489 4.59099 15.9413 6.06152 15.9414H8.30273C8.43277 15.9414 8.56282 15.9813 8.67285 16.0508L13.2051 18.9659V15.0166L8.35254 10.1573H6.06152Z" fill="#1D1B20"/>
<path d="M18.8271 7.35453C19.1072 7.07637 19.5473 7.08611 19.8174 7.37406C22.6284 10.3952 22.7189 15.2352 20.1182 18.3858L19.0977 17.3623C21.1782 14.7684 21.0984 10.8426 18.8076 8.37796C18.5376 8.08978 18.5471 7.6328 18.8271 7.35453Z" fill="#1D1B20"/>
<path d="M16.6865 9.66019C16.9666 9.38207 17.4067 9.39173 17.6768 9.67972C19.3174 11.4587 19.3773 14.2818 17.8867 16.1602L16.8867 15.1563C17.8671 13.8345 17.8065 11.906 16.666 10.6836C16.3962 10.3954 16.4065 9.93837 16.6865 9.66019Z" fill="#1D1B20"/>
<path d="M13.5449 5.20804C13.7649 5.069 14.0349 5.05858 14.2549 5.18753C14.475 5.31672 14.6152 5.56587 14.6152 5.82425V12.8702L13.2148 11.4785V7.12601L13.2246 7.11624L10.5732 8.82523L9.5332 7.79203L13.5449 5.20804Z" fill="#1D1B20"/>
</g>
<defs>
<clipPath id="clip0_1_3244">
<rect width="24" height="24" fill="white"/>
</clipPath>
</defs>
</svg>

<svg xmlns="http://www.w3.org/2000/svg" width="24" height="24" fill="none" viewBox="0 0 24 24"><g fill="currentColor" clip-path="url(#a)"><path fill-rule="evenodd" d="M2.48 3.22a.75.75 0 0 1 1.061 0l5.132 5.129.85.854 4.032 4.035 1.05 1.043 1.992 1.989h-.011l3.262 3.26c.3.287.29.765 0 1.053a.74.74 0 0 1-.53.218.74.74 0 0 1-.53-.218l-4.183-4.184v3.875c0 .269-.14.507-.36.636-.11.06-.22.09-.34.09a.7.7 0 0 1-.37-.11l-5.432-3.507H6.062C3.82 17.383 2 15.444 2 13.049s1.82-4.333 4.062-4.333h.86L2.48 4.273a.74.74 0 0 1 0-1.053m3.582 6.937c-1.46 0-2.661 1.292-2.662 2.892s1.191 2.892 2.662 2.892h2.24a.7.7 0 0 1 .37.11l4.533 2.915v-3.95l-4.852-4.859z" clip-rule="evenodd"/><path d="M18.827 7.355a.684.684 0 0 1 .99.02c2.811 3.02 2.902 7.86.301 11.01l-1.02-1.023c2.08-2.594 2-6.52-.29-8.984a.74.74 0 0 1 .02-1.023"/><path d="M16.687 9.66a.684.684 0 0 1 .99.02c1.64 1.779 1.7 4.602.21 6.48l-1-1.004c.98-1.322.92-3.25-.221-4.472a.74.74 0 0 1 .02-1.024m-3.141-4.452c.22-.139.49-.15.71-.02.22.129.36.378.36.636v7.046l-1.4-1.391V7.126l.01-.01-2.652 1.71-1.04-1.034z"/></g><defs><clipPath id="a"><path fill="currentColor" d="M0 0h24v24H0z"/></clipPath></defs></svg>
